X:61
T: Nekem is volt édesanyám...
O: Magyarszovát, Maneszes Márton "Kántor" (53), 1991
M:4/4
L:1/8
K:Bb
ggff ggdd | (ff) cc B2 z2 | 
ggff ggdd | ffcc B2 z2 | 
Bcdd dcBF | Bcdd dc B2 | 
FG Bc dB cc | G G3 G2 z2 | 

